dist/images/icons/shield_white.svg

<svg width="21" height="22" viewBox="0 0 21 22" fill="none" xmlns="http://www.w3.org/2000/svg">
<path d="M0.875 8.16667V1.75C0.875 1.51794 0.967187 1.29538 1.13128 1.13128C1.29538 0.967187 1.51794 0.875 1.75 0.875H19.25C19.4821 0.875 19.7046 0.967187 19.8687 1.13128C20.0328 1.29538 20.125 1.51794 20.125 1.75V8.16667C20.125 17.3558 12.3259 20.4003 10.7686 20.9166C10.5946 20.9765 10.4054 20.9765 10.2314 20.9166C8.67409 20.4003 0.875 17.3558 0.875 8.16667Z" fill="url(#paint0_linear_981_12094)"/>
<path fill-rule="evenodd" clip-rule="evenodd" d="M0.512563 0.512563C0.840752 0.184375 1.28587 0 1.75 0H19.25C19.7141 0 20.1592 0.184374 20.4874 0.512563C20.8156 0.840753 21 1.28587 21 1.75V8.16667C21 17.9724 12.6617 21.21 11.048 21.7458C10.6927 21.8668 10.3073 21.8668 9.95198 21.7458C8.33825 21.21 0 17.9724 0 8.16667V1.75C0 1.28587 0.184375 0.840752 0.512563 0.512563ZM19.25 1.75L1.75 1.75L1.75 8.16667C1.75 16.7186 8.97472 19.5768 10.5 20.0838C12.0253 19.5768 19.25 16.7186 19.25 8.16667V1.75Z" fill="url(#paint1_linear_981_12094)"/>
<path fill-rule="evenodd" clip-rule="evenodd" d="M15.9454 6.39584C16.2791 6.7454 16.2662 7.29927 15.9167 7.63294L9.49996 13.7579C9.16184 14.0807 8.62975 14.0807 8.29163 13.7579L5.08333 10.6954C4.73377 10.3618 4.72089 9.80789 5.05457 9.45833C5.38824 9.10877 5.94211 9.0959 6.29167 9.42957L8.8958 11.9154L14.7083 6.36706C15.0579 6.03339 15.6118 6.04628 15.9454 6.39584Z" fill="white"/>
<defs>
<linearGradient id="paint0_linear_981_12094" x1="10.5" y1="0.875" x2="10.5" y2="20.9615" gradientUnits="userSpaceOnUse">
<stop stop-color="#43D26B"/>
<stop offset="1" stop-color="#1EB463"/>
</linearGradient>
<linearGradient id="paint1_linear_981_12094" x1="10.5" y1="0" x2="10.5" y2="21.8365" gradientUnits="userSpaceOnUse">
<stop stop-color="#43D26B"/>
<stop offset="1" stop-color="#1EB463"/>
</linearGradient>
</defs>
</svg>

<svg width="21" height="22" fill="none" xmlns="http://www.w3.org/2000/svg"><path d="M.875 8.167V1.75A.875.875 0 011.75.875h17.5a.875.875 0 01.875.875v6.417c0 9.189-7.8 12.233-9.356 12.75a.825.825 0 01-.538 0C8.674 20.4.875 17.356.875 8.167z" fill="url(#paint0_linear_981_12094)"/><path fill-rule="evenodd" clip-rule="evenodd" d="M.513.513A1.75 1.75 0 011.75 0h17.5A1.75 1.75 0 0121 1.75v6.417c0 9.805-8.338 13.043-9.952 13.579a1.7 1.7 0 01-1.096 0C8.338 21.21 0 17.972 0 8.166V1.75C0 1.286.184.84.513.513zM19.25 1.75H1.75v6.417c0 8.552 7.225 11.41 8.75 11.917 1.525-.507 8.75-3.365 8.75-11.917V1.75z" fill="url(#paint1_linear_981_12094)"/><path fill-rule="evenodd" clip-rule="evenodd" d="M15.945 6.396a.875.875 0 01-.028 1.237L9.5 13.758a.875.875 0 01-1.208 0l-3.209-3.063A.875.875 0 116.292 9.43l2.604 2.485 5.812-5.548a.875.875 0 011.237.029z" fill="#fff"/><defs><linearGradient id="paint0_linear_981_12094" x1="10.5" y1=".875" x2="10.5" y2="20.962" gradientUnits="userSpaceOnUse"><stop stop-color="#43D26B"/><stop offset="1" stop-color="#1EB463"/></linearGradient><linearGradient id="paint1_linear_981_12094" x1="10.5" y1="0" x2="10.5" y2="21.837" gradientUnits="userSpaceOnUse"><stop stop-color="#43D26B"/><stop offset="1" stop-color="#1EB463"/></linearGradient></defs></svg>
